X:1
T:Ach, Gott, wie lang
T:Ach, Gott, wie lang
T:Benedictus Ducis
T:Source : Trium vocum cantiones---Nürnberg---J.Petreius---1541. Editor : André Vierendeels (31/08/15).
T:Notes : Original clefs : C1, C3 (C2 from m10), C4 Original note values have been halved Editorial accidentals above the staff Square bracket indicates ligature Original text in middle German m 23 in A, "si" notated as "sol" in original print
T:ps 13
C:Benedictus Ducis
%%score [ 1 2 3 ]
L:1/8
Q:1/4=120
M:2/2
K:C
V:1 treble nm="Discantus" snm="D"
V:2 treble nm="Altus" snm="A"
V:3 treble-8 nm="Tenor" snm="T"
V:1
 E4 G4- | G4 G4 | A4 G2 c2 | B4 A4 | z2 G2 A4 | B4 c3 B | A2 G2 F4 |1 E8 :|2 E8- || E4 z2 D2 | %10
w: Ach, Gott,|_ wie|lang ver- gis-|sest mein,|gar nach|bis mein _|_ _ en-|de,|de,|_ wie|
w: Ach, Gott,|_ wie|lang das ant-|lit dein|thust du|doch von _|_ mir wen-|den,|den,|_|
 E6 F2 | G2 A3 B c2 | B2 A4 G2 | A4 z4 | z8 | z8 | z4 c4- | c4 A4 | G4 F4 | E2 A3 E G2 | F4 E4- | %21
w: lang sol|ich selbs _ _|_ ra- chen|mir,|||den|_ gan-|zen tag|im her- * *|* zen.|
w: |||||||||||
 E8- | E8 |] %23
w: _||
w: ||
V:2
 E4 E2 C2- | C2 B,A, B,4 | A,2 C3 B,CD | E2 D3 C A,2 | B,2 B,2 A,2 C2 | D2 E3 D E2 | F2 E4 D2 |1 %7
w: Ach, Gott, wie||lang ver- * * *|* gis- * *|* sest mein, gar|nach bis- an mein|_ en- *|
w: Ach, Gott, wie|_ _ _ lang|das ant- * * *|lit dein _ _|_ thust du doch|von mir _ _|wen- * *|
 E4 z4 :|2 E2 G2 A2 B2 || c6 BA | G2 c2 B2 A2 | G2 F4 E2- | ED C2 B,4 | A,4 z2 E2 | F2 G2 A4 | %15
w: de,|de, wie lang sol|ich, _ _|_ wie lang sol|ich selbs ra-|* * * chen|mir, in|mei- nen sel|
w: den,|den, _ _ _|_ _ _||||||
 B2 c3 B A2- | A2 G2 A2 E2 | F2 A3 G F2 | E4 F2 A2 | G2 F3 G E2- | E2 D2 E2 G2 | G3 A B2 c2 | B8 |] %23
w: ein schmerz _ _|_ ge- * bir|den gan- * *|zen tag im|her- * * *|* * zen, im|her- * * *|zen.|
w: ||||||||
V:3
 E4 E4- | E4 E4 | F4 E2 A2 | G4 F4 | E4 z4 | G4 A3 G | AB c2 A2 B2 |1 c3 B A2 G2 :|2 c3 B A2 G2 || %9
w: Ach, Gott,|_ wie|lang ver- gis|sest _|mein,|gar nach _|_ _ an mein en-|* * * de,|* * * de,|
w: Ach, Gott,|_ wie|lang das ant-|lit _|dein|thust du _|_ _ doch von mir|wen- * * den,|wen- * * den|
 A6 GF | E2 A2 G2 F2 | E2 D4 A2 | G2 A2 E4 | z2 A2 B2 c2 | d2 e2 dcBA | G2 A2 c2 d2 | B4 A2 A2 | %17
w: wie _ _|lang sol ich selbs|ra- * *|* chen mir,|in mei- nen|sel ein schmerz _ _ _|_ ge- bir den|gan- * zen|
w: _ _ _||||||||
 A3 B c2 d2- | d2 c2 d4 | z2 d2 A2 c2 | A2 B2 c4- | c2 BA G2 A2 | E8 |] %23
w: tag _ _ _|_ _ _|den gan- zen|tag im her-||zen.|
w: ||||||

